X: 8
T: The Girl I Left Behind Me
R: polka
M: 2/4
L: 1/8
K: Gmaj
e |dB c/B/A/G/ | AG E(E/F/) | GG G/A/B/c/ | d2 Be |
dB c/B/A/G/ | AG E(F/G/) | FA D(E/F/) | G2 G ||
d |Bd ef | gd BG | Bd ef | g2 fg |
ed BG | B/A/G/F/ E(F/G/) | FA D(E/F/) | G2 G |]


Tune 5418	Setting 24488

